X:167
T: ES WAREN DREI GESELLEN
N: E1305
O: Europa, Mitteleuropa, Deutschland
R: Staende -, Soldaten - Lied, Reiter
M: 2/4
L: 1/8
K: G
D | G2FE | D2F2 | AGz2 | AGz
D | G2FE | D2F2 | AGz2 | AGz
d | BBBB | B2B
d | edcB | A2z
G | FAAA | d3
c | BBAA | G2z

@@@ Tune index: 4851
